!!!SOCIAL_FUNCTION: bear dance songs
!!!PDT:	1943
!!!LING_GROUP: Muskogean
!!!LANG: Non-Tone
Specific Region: Oklahoma, California, Mississippi, Louisiana, Texas, Alabama
!!!REG: Southeast
!!!COM: Anon.
!!!OTL: Bear Dance Song (a)
!!!ODT: <1933//
!!!MPN: Lapintabeseihoke [Kills it Himself, Sidney Wesley]
!!!MLC: Philadelphia, Mississippi, United States of America
!! Song was recorded in January 1933.
!!!AGN: monody
!!!AMT: irregular
!!!RWG: Transcribed pitches, durations, and meters are only approximate.
!! Recorded with striking sticks.
**kern	**recip
*ICvox	*ICidio
*Imale	*Isticks
*clefF4	*
*k[f#c#g#]	*
*M2/4	*M2/4
*MM88	*MM88
=1-	=1-
8.A	12
.	12r
.	12
16a	.
8A	12
.	12r
8A	.
.	12
=2	=2
8.B	12
.	12r
.	12
16B	.
8B	12
.	12r
8A	.
.	12
*M3/4
=3	=3
8.A	12
.	12r
.	12
16A	.
8A	12
.	12r
8r	.
.	12
8.A	12
.	12r
.	12
16A	.
*M2/4
=4	=4
4c#	12
.	12r
.	12
8.c#	12
.	12r
.	12
16B	.
=5	=5
8B	12
.	12r
16B	.
.	12
16r	.
8.c#	12
.	12r
.	12
16B	.
*M3/4
=6	=6
8B	12
.	12r
16A	.
.	12
16r	.
8.A	12
.	12r
.	12
16A	.
8A	12
.	12r
8r	.
.	12
*M2/4
=7	=7
8.A	12
.	12r
.	12
16A	.
8A	12
.	12r
8A	12
.	12r
.	12
=8	=8
8.B	12
.	12r
.	12
16A	.
8A	12
.	12r
16A	.
.	12
16r	.
=9	=9
8.A	12
.	12r
.	12
16A	.
8A	12
.	12r
16F#	.
.	12
16r	.
=10	=10
8.A	12
.	12r
.	12
16A	.
8A	12
.	12r
8r	.
.	12
=11	=11
8.A	12
.	12r
.	12
16A	.
8A	12
.	12r
.	12
8d	12
.	12r
.	12
=12	=12
8.B	12
.	12r
.	12
16A	.
8A	12
.	12r
8A	.
.	12
=13	=13
8.A	12
.	12r
.	12
16A	.
8A	12
.	12r
8r	.
.	12
=14	=14
8.A	12
.	12r
.	12
16A	.
8A	12
.	12r
8A	.
.	12
=15	=15
8.B	12
.	12r
.	12
16A	.
8A	12
.	12r
8A	.
.	12
=16	=16
8.A	12
.	12r
.	12
16A	.
8A	12
.	12r
8r	.
.	12
=17	=17
8.A	12
.	12r
.	12
16A	.
8A	12
.	12r
8d	.
.	12
=18	=18
8.B	12
.	12r
.	12
16A	.
8A	12
.	12r
8A	.
.	12
=19	=19
8.A	12
.	12r
.	12
16a	.
8A	12
.	12r
8r	.
.	12
=20	=20
8.A	12
.	12r
.	12
16A	.
8A	12
.	12r
16F#	.
.	12
16r	.
=21	=21
!!	added augmentation dot:
8.A	12
.	12r
.	12
16A	.
8A	12
.	12r
8r	.
.	12
=22	=22
8.A	12
.	12r
.	12
16A	.
8A	12
.	12r
8A	.
.	12
=23	=23
8.B	12
.	12r
.	12
16A	.
8A	12
.	12r
8A	.
.	12
=24	=24
8.A	12
.	12r
.	12
16A	.
8A	12
.	12r
8r	.
.	12
==	==
*-	*-
!!!CNT: Choctaw
!!!TXO: Choctaw
!!!OCY: United States
!!!OCL: Frances Densmore
!!!YOR: Frances Densmore, "Choctaw Music"
!!!YOR: Bulletin 136, page 158, No. 40
!!!PPR: Smithsonian Institution, Bureau of American Ethnology
!!!PPR: Government Printing Office
!!!PDT: 1943
!!!PPP: Washington, DC, United States of America
!!!YEC: Electronic Copyright 2000 David Huron
!!!YER: August 2000
!!!YEN: United States of America
!!!ENC: David Huron
!!!RDT: August 28, 2000
!!!EEV: Release 1.0
!!!AIN: sticks, vox
